docs/reference/data-models/aws/img/aws_ec2_volume_type.svg

<svg xmlns="http://www.w3.org/2000/svg" xmlns:xlink="http://www.w3.org/1999/xlink" width="341" height="1292" preserveAspectRatio="none" style="width:341px;height:1292px;background:#00000000"><a xlink:actuate="onRequest" xlink:href="#a" xlink:show="new" xlink:title="#resource" xlink:type="simple" target="_top"><rect id="a" width="195" height="275.836" x="84.5" y="7" fill="#3D176E" rx="2.5" ry="2.5" style="stroke:#000d19;stroke-width:1.5"/><circle cx="137.25" cy="26.895" r="11" fill="#E98DF7" style="stroke:#000d19;stroke-width:1"/><path d="M140.219 32.535q-.578.297-1.219.438-.64.156-1.344.156-2.5 0-3.828-1.64-1.312-1.657-1.312-4.782t1.312-4.781q1.328-1.656 3.828-1.656.703 0 1.344.156.656.156 1.219.453v2.719q-.625-.578-1.219-.844-.594-.281-1.219-.281-1.344 0-2.031 1.078-.688 1.062-.688 3.156 0 2.094.688 3.172.688 1.062 2.031 1.062.625 0 1.219-.265.594-.281 1.219-.86v2.72Z"/><text x="162.75" y="32.78" fill="#D9B8FF" font-family="Helvetica" font-size="17" textLength="71">resource</text><path d="M85.5 46.789h193" style="stroke:#000d19;stroke-width:1.5"/><text x="95.5" y="65.999" fill="#D9B8FF" font-family="sans-serif" font-size="11" font-weight="bold" textLength="12">id</text><text x="107.5" y="65.999" fill="#D9B8FF" font-family="sans-serif" font-size="11" textLength="41">: string</text><text x="95.5" y="88.804" fill="#D9B8FF" font-family="sans-serif" font-size="11" font-weight="bold" textLength="28">tags</text><text x="123.5" y="88.804" fill="#D9B8FF" font-family="sans-serif" font-size="11" textLength="145">: dictionary[string, string]</text><text x="95.5" y="111.609" fill="#D9B8FF" font-family="sans-serif" font-size="11" font-weight="bold" textLength="35">name</text><text x="130.5" y="111.609" fill="#D9B8FF" font-family="sans-serif" font-size="11" textLength="41">: string</text><text x="95.5" y="134.414" fill="#D9B8FF" font-family="sans-serif" font-size="11" font-weight="bold" textLength="35">ctime</text><text x="130.5" y="134.414" fill="#D9B8FF" font-family="sans-serif" font-size="11" textLength="58">: datetime</text><text x="95.5" y="157.218" fill="#D9B8FF" font-family="sans-serif" font-size="11" font-weight="bold" textLength="24">age</text><text x="119.5" y="157.218" fill="#D9B8FF" font-family="sans-serif" font-size="11" textLength="55">: duration</text><text x="95.5" y="180.023" fill="#D9B8FF" font-family="sans-serif" font-size="11" font-weight="bold" textLength="39">mtime</text><text x="134.5" y="180.023" fill="#D9B8FF" font-family="sans-serif" font-size="11" textLength="58">: datetime</text><text x="95.5" y="202.828" fill="#D9B8FF" font-family="sans-serif" font-size="11" font-weight="bold" textLength="75">last_update</text><text x="170.5" y="202.828" fill="#D9B8FF" font-family="sans-serif" font-size="11" textLength="55">: duration</text><text x="95.5" y="225.632" fill="#D9B8FF" font-family="sans-serif" font-size="11" font-weight="bold" textLength="36">atime</text><text x="131.5" y="225.632" fill="#D9B8FF" font-family="sans-serif" font-size="11" textLength="58">: datetime</text><text x="95.5" y="248.437" fill="#D9B8FF" font-family="sans-serif" font-size="11" font-weight="bold" textLength="74">last_access</text><text x="169.5" y="248.437" fill="#D9B8FF" font-family="sans-serif" font-size="11" textLength="55">: duration</text><text x="95.5" y="271.242" fill="#D9B8FF" font-family="sans-serif" font-size="11" font-weight="bold" textLength="27">kind</text><text x="122.5" y="271.242" fill="#D9B8FF" font-family="sans-serif" font-size="11" textLength="41">: string</text></a><a xlink:actuate="onRequest" xlink:href="#b" xlink:show="new" xlink:title="#phantom_resource" xlink:type="simple" target="_top"><rect id="b" width="198" height="39.789" x="7" y="404" fill="#3D176E" rx="2.5" ry="2.5" style="stroke:#000d19;stroke-width:1.5"/><circle cx="22" cy="423.894" r="11" fill="#E98DF7" style="stroke:#000d19;stroke-width:1"/><path d="M24.969 429.535q-.578.297-1.219.438-.64.156-1.344.156-2.5 0-3.828-1.64-1.312-1.657-1.312-4.782t1.312-4.781q1.328-1.656 3.828-1.656.703 0 1.344.156.656.156 1.219.453v2.719q-.625-.579-1.219-.844-.594-.281-1.219-.281-1.343 0-2.031 1.078-.688 1.062-.688 3.156 0 2.094.688 3.172.688 1.062 2.031 1.062.625 0 1.219-.265.594-.281 1.219-.86v2.72Z"/><text x="41" y="429.78" fill="#D9B8FF" font-family="Helvetica" font-size="17" textLength="156">phantom_resource</text></a><a xlink:actuate="onRequest" xlink:href="#c" xlink:show="new" xlink:title="#aws_resource" xlink:type="simple" target="_top"><rect id="c" width="155" height="70.594" x="179.5" y="504" fill="#3D176E" rx="2.5" ry="2.5" style="stroke:#000d19;stroke-width:1.5"/><circle cx="194.5" cy="523.894" r="11" fill="#E98DF7" style="stroke:#000d19;stroke-width:1"/><path d="M197.469 529.535q-.578.297-1.219.438-.64.156-1.344.156-2.5 0-3.828-1.64-1.312-1.657-1.312-4.782t1.312-4.781q1.328-1.657 3.828-1.657.703 0 1.344.157.656.156 1.219.453v2.719q-.625-.578-1.219-.844-.594-.281-1.219-.281-1.344 0-2.031 1.078-.688 1.062-.688 3.156 0 2.094.688 3.172.688 1.062 2.031 1.062.625 0 1.219-.265.594-.282 1.219-.86v2.72Z"/><text x="213.5" y="529.78" fill="#D9B8FF" font-family="Helvetica" font-size="17" textLength="113">aws_resource</text><path d="M180.5 543.789h153" style="stroke:#000d19;stroke-width:1.5"/><text x="190.5" y="563" fill="#D9B8FF" font-family="sans-serif" font-size="11" font-weight="bold" textLength="21">arn</text><text x="211.5" y="563" fill="#D9B8FF" font-family="sans-serif" font-size="11" textLength="41">: string</text></a><a xlink:actuate="onRequest" xlink:href="#d" xlink:show="new" xlink:title="#type" xlink:type="simple" target="_top"><rect id="d" width="79" height="39.789" x="69.5" y="872" fill="#3D176E" rx="2.5" ry="2.5" style="stroke:#000d19;stroke-width:1.5"/><circle cx="84.5" cy="891.894" r="11" fill="#E98DF7" style="stroke:#000d19;stroke-width:1"/><path d="M87.469 897.535q-.578.297-1.219.438-.64.156-1.344.156-2.5 0-3.828-1.64-1.312-1.657-1.312-4.782t1.312-4.781q1.328-1.657 3.828-1.657.703 0 1.344.157.656.156 1.219.453v2.719q-.625-.578-1.219-.844-.594-.281-1.219-.281-1.344 0-2.031 1.078-.688 1.062-.688 3.156 0 2.094.688 3.172.688 1.062 2.031 1.062.625 0 1.219-.265.594-.282 1.219-.86v2.72Z"/><text x="103.5" y="897.78" fill="#D9B8FF" font-family="Helvetica" font-size="17" textLength="37">type</text></a><a xlink:actuate="onRequest" xlink:href="#e" xlink:show="new" xlink:title="#quota" xlink:type="simple" target="_top"><rect id="e" width="134" height="116.203" x="39" y="635" fill="#3D176E" rx="2.5" ry="2.5" style="stroke:#000d19;stroke-width:1.5"/><circle cx="73.8" cy="654.894" r="11" fill="#E98DF7" style="stroke:#000d19;stroke-width:1"/><path d="M76.769 660.535q-.578.297-1.219.438-.64.156-1.344.156-2.5 0-3.828-1.64-1.312-1.657-1.312-4.782t1.312-4.781q1.328-1.657 3.828-1.657.703 0 1.344.157.656.156 1.219.453v2.719q-.625-.578-1.219-.844-.594-.281-1.219-.281-1.344 0-2.031 1.078-.688 1.062-.688 3.156 0 2.094.688 3.172.688 1.062 2.031 1.062.625 0 1.219-.265.594-.282 1.219-.86v2.72Z"/><text x="97.2" y="660.78" fill="#D9B8FF" font-family="Helvetica" font-size="17" textLength="48">quota</text><path d="M40 674.789h132" style="stroke:#000d19;stroke-width:1.5"/><text x="50" y="694" fill="#D9B8FF" font-family="sans-serif" font-size="11" font-weight="bold" textLength="37">quota</text><text x="87" y="694" fill="#D9B8FF" font-family="sans-serif" font-size="11" textLength="46">: double</text><text x="50" y="716.804" fill="#D9B8FF" font-family="sans-serif" font-size="11" font-weight="bold" textLength="39">usage</text><text x="89" y="716.804" fill="#D9B8FF" font-family="sans-serif" font-size="11" textLength="46">: double</text><text x="50" y="739.609" fill="#D9B8FF" font-family="sans-serif" font-size="11" font-weight="bold" textLength="71">quota_type</text><text x="121" y="739.609" fill="#D9B8FF" font-family="sans-serif" font-size="11" textLength="41">: string</text></a><a xlink:actuate="onRequest" xlink:href="#f" xlink:show="new" xlink:title="#aws_ec2_volume_type" xlink:type="simple" target="_top"><rect id="f" width="231" height="39.789" x="72.5" y="1247" fill="#3D176E" rx="2.5" ry="2.5" style="stroke:#000d19;stroke-width:1.5"/><circle cx="87.5" cy="1266.895" r="11" fill="#E98DF7" style="stroke:#000d19;stroke-width:1"/><path d="M90.469 1272.535q-.578.297-1.219.438-.64.156-1.344.156-2.5 0-3.828-1.64-1.312-1.657-1.312-4.782t1.312-4.781q1.328-1.656 3.828-1.656.703 0 1.344.156.656.156 1.219.453v2.719q-.625-.578-1.219-.844-.594-.281-1.219-.281-1.344 0-2.031 1.078-.688 1.062-.688 3.156 0 2.094.688 3.172.688 1.062 2.031 1.062.625 0 1.219-.265.594-.281 1.219-.86v2.72Z"/><text x="106.5" y="1272.78" fill="#D9B8FF" font-family="Helvetica" font-size="17" textLength="189">aws_ec2_volume_type</text></a><a xlink:actuate="onRequest" xlink:href="#g" xlink:show="new" xlink:title="#volume_type" xlink:type="simple" target="_top"><rect id="g" width="168" height="93.398" x="36" y="1033" fill="#3D176E" rx="2.5" ry="2.5" style="stroke:#000d19;stroke-width:1.5"/><circle cx="58.65" cy="1052.895" r="11" fill="#E98DF7" style="stroke:#000d19;stroke-width:1"/><path d="M61.619 1058.535q-.578.297-1.219.438-.64.156-1.344.156-2.5 0-3.828-1.64-1.312-1.657-1.312-4.782t1.312-4.781q1.328-1.656 3.828-1.656.703 0 1.344.156.656.156 1.219.453v2.719q-.625-.578-1.219-.844-.594-.281-1.219-.281-1.343 0-2.031 1.078-.688 1.062-.688 3.156 0 2.094.688 3.172.688 1.062 2.031 1.062.625 0 1.219-.265.594-.281 1.219-.86v2.72Z"/><text x="79.35" y="1058.78" fill="#D9B8FF" font-family="Helvetica" font-size="17" textLength="109">volume_type</text><path d="M37 1072.789h166" style="stroke:#000d19;stroke-width:1.5"/><text x="47" y="1091.999" fill="#D9B8FF" font-family="sans-serif" font-size="11" font-weight="bold" textLength="80">volume_type</text><text x="127" y="1091.999" fill="#D9B8FF" font-family="sans-serif" font-size="11" textLength="41">: string</text><text x="47" y="1114.804" fill="#D9B8FF" font-family="sans-serif" font-size="11" font-weight="bold" textLength="100">ondemand_cost</text><text x="147" y="1114.804" fill="#D9B8FF" font-family="sans-serif" font-size="11" textLength="46">: double</text></a><path fill="none" d="M139.02 302.65c-11.13 40.56-21.68 79.01-27.74 101.1m21.01-103.03 12.04-17.44 1.46 21.14-13.5-3.7zm79.73 2.38c14.12 73.91 29.72 155.54 38.33 200.62m-45.29-199.76 3.12-20.96 10.63 18.33-13.75 2.63zm-97.88 467.31c.55 36.53 1.17 77.15 1.53 100.44m-8.53-100.36 6.69-20.1 7.31 19.89-14 .21zm5.82-307.1v170.49M99 464.2l7-20 7 20H99zm158 131.22v485.08c0 64.25-36.82 133.62-56.66 166.34M250 595.09l7-20 7 20h-14zm-106.21 550.3c13.06 35.65 28.35 77.35 37.1 101.21m-43.77-99.06-.31-21.19 13.45 16.37-13.14 4.82zm-25.8-215.38c1.75 29.4 4.14 69.72 5.97 100.6m-12.96-100.23 5.81-20.38 8.17 19.55-13.98.83z" style="stroke:#ffaf37;stroke-width:2"/></svg>

<svg xmlns="http://www.w3.org/2000/svg" xmlns:xlink="http://www.w3.org/1999/xlink" width="341" height="1292" preserveAspectRatio="none" style="width:341px;height:1292px;background:#00000000"><a xlink:actuate="onRequest" xlink:href="#a" xlink:show="new" xlink:title="#resource" xlink:type="simple" target="_top"><rect id="a" width="195" height="275.836" x="84.5" y="7" fill="#3D176E" rx="2.5" ry="2.5" style="stroke:#000d19;stroke-width:1.5"/><circle cx="137.25" cy="26.895" r="11" fill="#E98DF7" style="stroke:#000d19;stroke-width:1"/><path d="M140.219 32.535q-.578.297-1.219.438-.64.156-1.344.156-2.5 0-3.828-1.64-1.312-1.657-1.312-4.782t1.312-4.781q1.328-1.656 3.828-1.656.703 0 1.344.156.656.156 1.219.453v2.719q-.625-.578-1.219-.844-.594-.281-1.219-.281-1.344 0-2.031 1.078-.688 1.062-.688 3.156 0 2.094.688 3.172.688 1.062 2.031 1.062.625 0 1.219-.265.594-.281 1.219-.86v2.72Z"/><text x="162.75" y="32.78" fill="#D9B8FF" font-family="Helvetica" font-size="17" textLength="71">resource</text><path d="M85.5 46.789h193" style="stroke:#000d19;stroke-width:1.5"/><text x="95.5" y="65.999" fill="#D9B8FF" font-family="sans-serif" font-size="11" font-weight="bold" textLength="12">id</text><text x="107.5" y="65.999" fill="#D9B8FF" font-family="sans-serif" font-size="11" textLength="41">: string</text><text x="95.5" y="88.804" fill="#D9B8FF" font-family="sans-serif" font-size="11" font-weight="bold" textLength="28">tags</text><text x="123.5" y="88.804" fill="#D9B8FF" font-family="sans-serif" font-size="11" textLength="145">: dictionary[string, string]</text><text x="95.5" y="111.609" fill="#D9B8FF" font-family="sans-serif" font-size="11" font-weight="bold" textLength="35">name</text><text x="130.5" y="111.609" fill="#D9B8FF" font-family="sans-serif" font-size="11" textLength="41">: string</text><text x="95.5" y="134.414" fill="#D9B8FF" font-family="sans-serif" font-size="11" font-weight="bold" textLength="35">ctime</text><text x="130.5" y="134.414" fill="#D9B8FF" font-family="sans-serif" font-size="11" textLength="58">: datetime</text><text x="95.5" y="157.218" fill="#D9B8FF" font-family="sans-serif" font-size="11" font-weight="bold" textLength="24">age</text><text x="119.5" y="157.218" fill="#D9B8FF" font-family="sans-serif" font-size="11" textLength="55">: duration</text><text x="95.5" y="180.023" fill="#D9B8FF" font-family="sans-serif" font-size="11" font-weight="bold" textLength="39">mtime</text><text x="134.5" y="180.023" fill="#D9B8FF" font-family="sans-serif" font-size="11" textLength="58">: datetime</text><text x="95.5" y="202.828" fill="#D9B8FF" font-family="sans-serif" font-size="11" font-weight="bold" textLength="75">last_update</text><text x="170.5" y="202.828" fill="#D9B8FF" font-family="sans-serif" font-size="11" textLength="55">: duration</text><text x="95.5" y="225.632" fill="#D9B8FF" font-family="sans-serif" font-size="11" font-weight="bold" textLength="36">atime</text><text x="131.5" y="225.632" fill="#D9B8FF" font-family="sans-serif" font-size="11" textLength="58">: datetime</text><text x="95.5" y="248.437" fill="#D9B8FF" font-family="sans-serif" font-size="11" font-weight="bold" textLength="74">last_access</text><text x="169.5" y="248.437" fill="#D9B8FF" font-family="sans-serif" font-size="11" textLength="55">: duration</text><text x="95.5" y="271.242" fill="#D9B8FF" font-family="sans-serif" font-size="11" font-weight="bold" textLength="27">kind</text><text x="122.5" y="271.242" fill="#D9B8FF" font-family="sans-serif" font-size="11" textLength="41">: string</text></a><a xlink:actuate="onRequest" xlink:href="#b" xlink:show="new" xlink:title="#phantom_resource" xlink:type="simple" target="_top"><rect id="b" width="198" height="39.789" x="7" y="404" fill="#3D176E" rx="2.5" ry="2.5" style="stroke:#000d19;stroke-width:1.5"/><circle cx="22" cy="423.894" r="11" fill="#E98DF7" style="stroke:#000d19;stroke-width:1"/><path d="M24.969 429.535q-.578.297-1.219.438-.64.156-1.344.156-2.5 0-3.828-1.64-1.312-1.657-1.312-4.782t1.312-4.781q1.328-1.656 3.828-1.656.703 0 1.344.156.656.156 1.219.453v2.719q-.625-.579-1.219-.844-.594-.281-1.219-.281-1.343 0-2.031 1.078-.688 1.062-.688 3.156 0 2.094.688 3.172.688 1.062 2.031 1.062.625 0 1.219-.265.594-.281 1.219-.86v2.72Z"/><text x="41" y="429.78" fill="#D9B8FF" font-family="Helvetica" font-size="17" textLength="156">phantom_resource</text></a><a xlink:actuate="onRequest" xlink:href="#c" xlink:show="new" xlink:title="#aws_resource" xlink:type="simple" target="_top"><rect id="c" width="155" height="70.594" x="179.5" y="504" fill="#3D176E" rx="2.5" ry="2.5" style="stroke:#000d19;stroke-width:1.5"/><circle cx="194.5" cy="523.894" r="11" fill="#E98DF7" style="stroke:#000d19;stroke-width:1"/><path d="M197.469 529.535q-.578.297-1.219.438-.64.156-1.344.156-2.5 0-3.828-1.64-1.312-1.657-1.312-4.782t1.312-4.781q1.328-1.657 3.828-1.657.703 0 1.344.157.656.156 1.219.453v2.719q-.625-.578-1.219-.844-.594-.281-1.219-.281-1.344 0-2.031 1.078-.688 1.062-.688 3.156 0 2.094.688 3.172.688 1.062 2.031 1.062.625 0 1.219-.265.594-.282 1.219-.86v2.72Z"/><text x="213.5" y="529.78" fill="#D9B8FF" font-family="Helvetica" font-size="17" textLength="113">aws_resource</text><path d="M180.5 543.789h153" style="stroke:#000d19;stroke-width:1.5"/><text x="190.5" y="563" fill="#D9B8FF" font-family="sans-serif" font-size="11" font-weight="bold" textLength="21">arn</text><text x="211.5" y="563" fill="#D9B8FF" font-family="sans-serif" font-size="11" textLength="41">: string</text></a><a xlink:actuate="onRequest" xlink:href="#d" xlink:show="new" xlink:title="#type" xlink:type="simple" target="_top"><rect id="d" width="79" height="39.789" x="69.5" y="872" fill="#3D176E" rx="2.5" ry="2.5" style="stroke:#000d19;stroke-width:1.5"/><circle cx="84.5" cy="891.894" r="11" fill="#E98DF7" style="stroke:#000d19;stroke-width:1"/><path d="M87.469 897.535q-.578.297-1.219.438-.64.156-1.344.156-2.5 0-3.828-1.64-1.312-1.657-1.312-4.782t1.312-4.781q1.328-1.657 3.828-1.657.703 0 1.344.157.656.156 1.219.453v2.719q-.625-.578-1.219-.844-.594-.281-1.219-.281-1.344 0-2.031 1.078-.688 1.062-.688 3.156 0 2.094.688 3.172.688 1.062 2.031 1.062.625 0 1.219-.265.594-.282 1.219-.86v2.72Z"/><text x="103.5" y="897.78" fill="#D9B8FF" font-family="Helvetica" font-size="17" textLength="37">type</text></a><a xlink:actuate="onRequest" xlink:href="#e" xlink:show="new" xlink:title="#quota" xlink:type="simple" target="_top"><rect id="e" width="134" height="116.203" x="39" y="635" fill="#3D176E" rx="2.5" ry="2.5" style="stroke:#000d19;stroke-width:1.5"/><circle cx="73.8" cy="654.894" r="11" fill="#E98DF7" style="stroke:#000d19;stroke-width:1"/><path d="M76.769 660.535q-.578.297-1.219.438-.64.156-1.344.156-2.5 0-3.828-1.64-1.312-1.657-1.312-4.782t1.312-4.781q1.328-1.657 3.828-1.657.703 0 1.344.157.656.156 1.219.453v2.719q-.625-.578-1.219-.844-.594-.281-1.219-.281-1.344 0-2.031 1.078-.688 1.062-.688 3.156 0 2.094.688 3.172.688 1.062 2.031 1.062.625 0 1.219-.265.594-.282 1.219-.86v2.72Z"/><text x="97.2" y="660.78" fill="#D9B8FF" font-family="Helvetica" font-size="17" textLength="48">quota</text><path d="M40 674.789h132" style="stroke:#000d19;stroke-width:1.5"/><text x="50" y="694" fill="#D9B8FF" font-family="sans-serif" font-size="11" font-weight="bold" textLength="37">quota</text><text x="87" y="694" fill="#D9B8FF" font-family="sans-serif" font-size="11" textLength="46">: double</text><text x="50" y="716.804" fill="#D9B8FF" font-family="sans-serif" font-size="11" font-weight="bold" textLength="39">usage</text><text x="89" y="716.804" fill="#D9B8FF" font-family="sans-serif" font-size="11" textLength="46">: double</text><text x="50" y="739.609" fill="#D9B8FF" font-family="sans-serif" font-size="11" font-weight="bold" textLength="71">quota_type</text><text x="121" y="739.609" fill="#D9B8FF" font-family="sans-serif" font-size="11" textLength="41">: string</text></a><a xlink:actuate="onRequest" xlink:href="#f" xlink:show="new" xlink:title="#aws_ec2_volume_type" xlink:type="simple" target="_top"><rect id="f" width="231" height="39.789" x="72.5" y="1247" fill="#3D176E" rx="2.5" ry="2.5" style="stroke:#000d19;stroke-width:1.5"/><circle cx="87.5" cy="1266.895" r="11" fill="#E98DF7" style="stroke:#000d19;stroke-width:1"/><path d="M90.469 1272.535q-.578.297-1.219.438-.64.156-1.344.156-2.5 0-3.828-1.64-1.312-1.657-1.312-4.782t1.312-4.781q1.328-1.656 3.828-1.656.703 0 1.344.156.656.156 1.219.453v2.719q-.625-.578-1.219-.844-.594-.281-1.219-.281-1.344 0-2.031 1.078-.688 1.062-.688 3.156 0 2.094.688 3.172.688 1.062 2.031 1.062.625 0 1.219-.265.594-.281 1.219-.86v2.72Z"/><text x="106.5" y="1272.78" fill="#D9B8FF" font-family="Helvetica" font-size="17" textLength="189">aws_ec2_volume_type</text></a><a xlink:actuate="onRequest" xlink:href="#g" xlink:show="new" xlink:title="#volume_type" xlink:type="simple" target="_top"><rect id="g" width="168" height="93.398" x="36" y="1033" fill="#3D176E" rx="2.5" ry="2.5" style="stroke:#000d19;stroke-width:1.5"/><circle cx="58.65" cy="1052.895" r="11" fill="#E98DF7" style="stroke:#000d19;stroke-width:1"/><path d="M61.619 1058.535q-.578.297-1.219.438-.64.156-1.344.156-2.5 0-3.828-1.64-1.312-1.657-1.312-4.782t1.312-4.781q1.328-1.656 3.828-1.656.703 0 1.344.156.656.156 1.219.453v2.719q-.625-.578-1.219-.844-.594-.281-1.219-.281-1.343 0-2.031 1.078-.688 1.062-.688 3.156 0 2.094.688 3.172.688 1.062 2.031 1.062.625 0 1.219-.265.594-.281 1.219-.86v2.72Z"/><text x="79.35" y="1058.78" fill="#D9B8FF" font-family="Helvetica" font-size="17" textLength="109">volume_type</text><path d="M37 1072.789h166" style="stroke:#000d19;stroke-width:1.5"/><text x="47" y="1091.999" fill="#D9B8FF" font-family="sans-serif" font-size="11" font-weight="bold" textLength="80">volume_type</text><text x="127" y="1091.999" fill="#D9B8FF" font-family="sans-serif" font-size="11" textLength="41">: string</text><text x="47" y="1114.804" fill="#D9B8FF" font-family="sans-serif" font-size="11" font-weight="bold" textLength="100">ondemand_cost</text><text x="147" y="1114.804" fill="#D9B8FF" font-family="sans-serif" font-size="11" textLength="46">: double</text></a><path fill="none" d="M139.02 302.65c-11.13 40.56-21.68 79.01-27.74 101.1M132.29 300.72l12.04-17.44 1.46 21.14-13.5-3.7zM212.02 303.1c14.12 73.91 29.72 155.54 38.33 200.62M205.06 303.96l3.12-20.96 10.63 18.33-13.75 2.63zM107.18 771.27c.55 36.53 1.17 77.15 1.53 100.44M100.18 771.35l6.69-20.1 7.31 19.89-14 .21zM106 464.25v170.49M99 464.2l7-20 7 20H99zM257 595.42V1080.5c0 64.25-36.82 133.62-56.66 166.34M250 595.09l7-20 7 20h-14zM143.79 1145.39c13.06 35.65 28.35 77.35 37.1 101.21M137.12 1147.54l-.31-21.19 13.45 16.37-13.14 4.82zM111.32 932.16c1.75 29.4 4.14 69.72 5.97 100.6M104.33 932.53l5.81-20.38 8.17 19.55-13.98.83z" style="stroke:#ffaf37;stroke-width:2"/></svg>
